X: 11906
T: Emmentaler
R: mazurka
M: 3/4
K: Dmajor
FA|d>c df Ad|B2 G2 ce|g>f gb ag|fa d2 FA|
FA|d>c df Ad|B2 G2 ce|g>f eb ac|d4:|
|:FA|GE cA e2|dA fd a2|gf eb ac|df Ad FA|
GE cA e2|dA fd a2|gf eb ac|d4:|
[K: G]|:c Bc|dB g3d|cA a2 AB|(3dcB ce dc|Bd G2 Bc|
dB g3d|cA a2 AB|(3dcB ce dA|G4:|
[K: D]|:FG|A2 Bc de|fd gf ed|eA fe dc|df A2 A2|
A2 Bc de|fd gf ed|ce eb ac|d4:|

